X:318
T:Natchez Under The Hill
C:Howard Nash
N:Transcribed by Kim Davis and Mike Stangeland
R:bluegrass
L:1/8
Q:1/4=230
M:4/4
K:G
z6 DF | "G"G2 GA GE DB, | ^A,B, EB, DE GA | B^A Bd "G#dim"B=A GA | "D7"Bc ^cd ed ef | 
"G"gb ae dg ed | BA GB AG EG | DE GA Bc ^cd | "D7"^A=A FD G2 DF | GF GA GE DB, | 
^A,B, EB, DE GA | ^AB de "G#dim"A=A GA | "D7"B[gd] ze [g2d2] ef | "G"gb ae dg ed | 
cA dc ^A=A GE | DE GA ^AB G=F | "D7"ED ^A,B, G,2 Dc | "G"Bd de dB GA | Bd ze d3e | 
"C"z4 [e3B3]d | ed Bd ed ef | "G"gb ae dg ed | ce dB c^A G^D | DE GA ^AB =AG | 
"D7"=FD ^A,B, G,D zc | "G"Bc de dB GA | Bd de dB gf | "C"e2 ef ed Bd | ed ef e=f ^fa | 
"G"gb ge dg ed | ^A=A G_B =BG EB, | DE GA ^AB de | "D7"^A=A FD "G"G2 DE | "G#dim"c^A =Ac {_B}=BG E^D | 
"G#dim"DE GA ^AB c^c | "G"de ^A=A G[gB] z2 | z8 | z8 | z8 | z8 | 


